X:1
T: The She Favourite
N:
C:
S: Play  3  times
A:
O:
R:
M:3/2
K:Am
I:speed 150
%W: A1
% voice 1 (1 lines, 26 notes)
K:Am
M:3/2
L:1/16
c4 A8 |c4 B4 |A4 ^G4 |E8 |B4 A4 |G4 c4 |e4 B2 |d2 B2 d2 |A4 c4 |B4 c4 |d2 c2 B2 |A2 ^G4 |B4
%W:
% voice 1 (1 lines, 26 notes)
c4 |A8 |c4 B4 |A4 ^G4 |B8 |d4 c4 |B4 c2 |e2 a2 c2 |d2 f2 g2 |B2 A2 e2 |f2 A2 ^G4 |E8 |G4 A8 |
%W: A2
% voice 1 (1 lines, 26 notes)
c4 A8 |c4 B4 |A4 ^G4 |E8 |B4 A4 |G4 c4 |e4 B2 |d2 B2 d2 |A4 c4 |B4 c4 |d2 c2 B2 |A2 ^G4 |B4
%W:
% voice 1 (1 lines, 26 notes)
c4 |A8 |c4 B4 |A4 ^G4 |B8 |d4 c4 |B4 c2 |e2 a2 c2 |d2 f2 g2 |B2 A2 e2 |f2 A2 ^G4 |E8 |G4 A8 |
%W: B1
% voice 1 (1 lines, 28 notes)
e4 c8 |d4 e2 |f2 g4 |g4 a2 |g2 f2 e2 |d2 c2 B2 |c2 d4 |e4 G4 |F4 d4 |E4 c4 |D4 c4 |c6 |B2 c6 |d2
%W:
% voice 1 (1 lines, 31 notes)
e2 d2 |c2 e2 d2 |c2 B2 d2 |c2 B2 A2 |c2 B4 |^F4 ^G4 |A4 G2 |B2 c2 d2 |e4 E4 |d4 D4 |c4 C4 |B4 B,4 |A,4 ^G4 |A8 |
%W: B2
% voice 1 (1 lines, 28 notes)
e4 c8 |d4 e2 |f2 g4 |g4 a2 |g2 f2 e2 |d2 c2 B2 |c2 d4 |e4 G4 |F4 d4 |E4 c4 |D4 c4 |c6 |B2 c6 |d2
%W:
% voice 1 (1 lines, 31 notes)
e2 d2 |c2 e2 d2 |c2 B2 d2 |c2 B2 A2 |c2 B4 |^F4 ^G4 |A4 G2 |B2 c2 d2 |e4 E4 |d4 D4 |c4 C4 |B4 B,4 |A,4 ^G4 |A8 ||
